flaticon/constructions/brick-wall-2.svg

<svg xmlns="http://www.w3.org/2000/svg" width="32" height="32" viewBox="0 0 24 24">
    <path d="M 23.390625 10.167969 L 22.117188 10.167969 C 22.21875 9.890625 22.207031 9.574219 22.089844 9.273438 L 18.46875 0.570312 C 18.347656 0.203125 18.019531 0 17.652344 0 C 17.289062 0 17.003906 0.203125 16.839844 0.527344 L 14.246094 6.914062 L 9.558594 6.914062 L 9.558594 4.066406 C 9.558594 3.824219 9.398438 3.660156 9.152344 3.660156 L 0.609375 3.660156 C 0.367188 3.660156 0.203125 3.824219 0.203125 4.066406 L 0.203125 23.59375 C 0.203125 23.835938 0.367188 24 0.609375 24 L 23.390625 24 C 23.632812 24 23.796875 23.835938 23.796875 23.632812 L 23.796875 20.378906 C 23.796875 20.371094 23.796875 20.367188 23.796875 20.359375 C 23.796875 20.351562 23.796875 20.347656 23.796875 20.339844 L 23.796875 10.578125 C 23.796875 10.332031 23.632812 10.167969 23.390625 10.167969 Z M 17.863281 23.175781 C 17.8125 23.15625 17.757812 23.144531 17.695312 23.144531 C 17.164062 23.144531 16.726562 22.832031 16.554688 22.371094 L 17.289062 22.371094 C 17.53125 22.371094 17.695312 22.210938 17.695312 21.964844 C 17.695312 21.722656 17.53125 21.558594 17.289062 21.558594 L 16.472656 21.558594 L 16.472656 20.746094 L 17.289062 20.746094 C 17.53125 20.746094 17.695312 20.582031 17.695312 20.339844 C 17.695312 20.09375 17.53125 19.933594 17.289062 19.933594 L 16.609375 19.933594 C 16.882812 19.121094 16.960938 18.003906 16.839844 17.042969 C 16.8125 16.726562 16.742188 16.347656 16.617188 15.992188 C 16.609375 15.976562 16.605469 15.960938 16.597656 15.945312 C 16.597656 15.9375 16.59375 15.933594 16.59375 15.929688 C 16.542969 15.800781 16.492188 15.683594 16.433594 15.578125 L 16.109375 14.765625 C 16.066406 14.644531 16.066406 14.523438 16.148438 14.398438 C 16.230469 14.320312 16.351562 14.238281 16.472656 14.238281 L 18.914062 14.238281 C 19.039062 14.238281 19.160156 14.320312 19.199219 14.398438 C 19.28125 14.523438 19.28125 14.644531 19.242188 14.765625 L 18.914062 15.578125 C 18.671875 15.988281 18.550781 16.597656 18.507812 17.042969 C 18.507812 17.066406 18.511719 17.089844 18.515625 17.113281 C 18.429688 18.089844 18.542969 19.207031 18.792969 20.011719 C 18.832031 20.136719 18.832031 20.257812 18.875 20.421875 C 18.898438 20.492188 18.90625 20.5625 18.914062 20.625 C 18.914062 20.667969 18.914062 20.707031 18.914062 20.746094 L 18.914062 21.964844 C 18.914062 22.601562 18.46875 23.097656 17.863281 23.175781 Z M 12 19.933594 L 9.558594 19.933594 L 9.558594 17.492188 L 14.441406 17.492188 L 14.441406 19.933594 Z M 6.304688 19.933594 L 3.863281 19.933594 L 3.863281 17.492188 L 8.746094 17.492188 L 8.746094 19.933594 Z M 1.015625 19.933594 L 1.015625 17.492188 L 3.050781 17.492188 L 3.050781 19.933594 Z M 3.457031 7.730469 L 5.898438 7.730469 L 5.898438 10.167969 L 1.015625 10.167969 L 1.015625 7.730469 Z M 12 10.984375 L 14.441406 10.984375 L 14.441406 13.421875 L 9.558594 13.421875 L 9.558594 10.984375 Z M 16.472656 10.984375 L 16.472656 13.421875 L 15.253906 13.421875 L 15.253906 10.984375 Z M 20.136719 10.984375 L 20.136719 13.421875 L 18.914062 13.421875 L 18.914062 10.984375 Z M 22.984375 16.679688 L 19.492188 16.679688 C 19.546875 16.382812 19.625 16.128906 19.730469 15.945312 L 19.730469 15.90625 L 20.054688 15.050781 C 20.144531 14.785156 20.144531 14.5 20.0625 14.238281 L 22.984375 14.238281 Z M 19.648438 19.730469 C 19.449219 19.070312 19.371094 18.234375 19.402344 17.492188 L 20.136719 17.492188 L 20.136719 19.933594 L 19.714844 19.933594 C 19.695312 19.859375 19.671875 19.789062 19.648438 19.730469 Z M 20.988281 17.492188 L 22.984375 17.492188 L 22.984375 19.933594 L 20.988281 19.933594 Z M 18.101562 13.421875 L 17.289062 13.421875 L 17.289062 10.984375 L 18.101562 10.984375 Z M 14.847656 16.679688 L 12.40625 16.679688 L 12.40625 14.238281 L 15.296875 14.238281 C 15.261719 14.335938 15.242188 14.445312 15.238281 14.554688 C 15.238281 14.558594 15.238281 14.558594 15.238281 14.558594 C 15.238281 14.574219 15.238281 14.585938 15.238281 14.597656 C 15.238281 14.75 15.269531 14.902344 15.335938 15.050781 L 15.703125 15.988281 C 15.824219 16.148438 15.90625 16.394531 15.945312 16.679688 Z M 9.152344 16.679688 L 6.710938 16.679688 L 6.710938 14.238281 L 11.59375 14.238281 L 11.59375 16.679688 Z M 3.457031 16.679688 L 1.015625 16.679688 L 1.015625 14.238281 L 5.898438 14.238281 L 5.898438 16.679688 Z M 1.015625 10.984375 L 3.050781 10.984375 L 3.050781 13.421875 L 1.015625 13.421875 Z M 8.746094 13.421875 L 3.863281 13.421875 L 3.863281 10.984375 L 8.746094 10.984375 Z M 15.253906 17.492188 L 16.066406 17.492188 C 16.070312 17.5 16.070312 17.503906 16.070312 17.511719 C 16.109375 18.265625 16.042969 19.105469 15.863281 19.730469 C 15.824219 19.808594 15.78125 19.851562 15.78125 19.933594 L 15.253906 19.933594 Z M 22.984375 13.421875 L 20.949219 13.421875 L 20.949219 10.984375 L 22.984375 10.984375 Z M 17.574219 0.855469 C 17.613281 0.855469 17.613281 0.8125 17.652344 0.8125 C 17.695312 0.8125 17.734375 0.855469 17.734375 0.855469 L 21.273438 9.558594 C 21.355469 9.679688 21.316406 9.84375 21.234375 9.964844 C 21.152344 10.089844 21.03125 10.167969 20.867188 10.167969 L 14.632812 10.167969 C 14.578125 10.144531 14.511719 10.128906 14.441406 10.128906 C 14.320312 10.128906 14.15625 10.046875 14.074219 9.925781 C 14.027344 9.855469 14.007812 9.785156 14.007812 9.703125 C 14.011719 9.652344 14.019531 9.605469 14.035156 9.558594 Z M 13.300781 9.230469 L 13.300781 9.234375 C 13.175781 9.550781 13.171875 9.871094 13.292969 10.167969 L 12.40625 10.167969 L 12.40625 7.730469 L 13.910156 7.730469 Z M 11.59375 10.167969 L 6.710938 10.167969 L 6.710938 7.730469 L 11.59375 7.730469 Z M 8.746094 6.914062 L 3.863281 6.914062 L 3.863281 4.472656 L 8.746094 4.472656 Z M 1.015625 4.472656 L 3.050781 4.472656 L 3.050781 6.914062 L 1.015625 6.914062 Z M 1.015625 20.746094 L 5.898438 20.746094 L 5.898438 23.1875 L 1.015625 23.1875 Z M 6.710938 20.746094 L 11.59375 20.746094 L 11.59375 23.1875 L 6.710938 23.1875 Z M 12.40625 20.746094 L 15.660156 20.746094 L 15.660156 21.964844 C 15.660156 21.996094 15.660156 22.023438 15.664062 22.054688 C 15.679688 22.480469 15.824219 22.871094 16.058594 23.1875 L 12.40625 23.1875 Z M 22.984375 23.1875 L 19.347656 23.1875 C 19.609375 22.847656 19.777344 22.425781 19.808594 21.964844 L 19.808594 20.746094 L 22.984375 20.746094 Z M 22.984375 23.1875"/>
</svg>

<svg xmlns="http://www.w3.org/2000/svg" width="32" height="32" viewBox="0 0 24 24">
    <path d="M23.39 10.168h-1.273c.102-.277.09-.594-.027-.895L18.469.57c-.121-.367-.45-.57-.817-.57-.363 0-.648.203-.812.527l-2.594 6.387H9.56V4.066c0-.242-.16-.406-.407-.406H.61a.385.385 0 0 0-.406.406v19.528c0 .242.164.406.406.406h22.782c.242 0 .406-.164.406-.367v-3.254-.02-9.78c0-.247-.164-.411-.406-.411zm-5.527 13.008a.46.46 0 0 0-.168-.031c-.53 0-.968-.313-1.14-.774h.734c.242 0 .406-.16.406-.406a.385.385 0 0 0-.406-.406h-.816v-.813h.816a.385.385 0 0 0 .406-.406c0-.246-.164-.406-.406-.406h-.68c.274-.813.352-1.93.23-2.891a4.407 4.407 0 0 0-.222-1.05c-.008-.016-.012-.032-.02-.048 0-.008-.003-.011-.003-.015a2.956 2.956 0 0 0-.16-.352l-.325-.812a.39.39 0 0 1 .04-.368c.081-.078.203-.16.324-.16h2.441c.125 0 .246.082.285.16a.402.402 0 0 1 .043.368l-.328.812c-.242.41-.363 1.02-.406 1.465 0 .023.004.047.008.07-.086.977.027 2.094.277 2.899.039.125.039.246.082.41.023.07.031.14.04.203v1.34c0 .637-.446 1.133-1.052 1.21zM12 19.934H9.559v-2.442h4.882v2.442zm-5.695 0H3.863v-2.442h4.883v2.442zm-5.29 0v-2.442h2.036v2.442zM3.458 7.73h2.441v2.438H1.016V7.73zM12 10.984h2.441v2.438H9.56v-2.438zm4.473 0v2.438h-1.22v-2.438zm3.664 0v2.438h-1.223v-2.438zm2.847 5.696h-3.492c.055-.297.133-.551.238-.735v-.039l.325-.855c.09-.266.09-.551.008-.813h2.921zm-3.336 3.05c-.199-.66-.277-1.496-.246-2.238h.735v2.442h-.422a1.774 1.774 0 0 0-.067-.204zm1.34-2.238h1.996v2.442h-1.996zm-2.886-4.07h-.813v-2.438h.813zm-3.254 3.258h-2.442v-2.442h2.89a1.056 1.056 0 0 0-.058.317v.043c0 .152.032.304.098.453l.367.937c.121.16.203.407.242.692zm-5.696 0H6.711v-2.442h4.883v2.442zm-5.695 0H1.016v-2.442h4.882v2.442zm-2.441-5.696H3.05v2.438H1.016zm7.73 2.438H3.863v-2.438h4.883zm6.508 4.07h.812a.035.035 0 0 1 .004.02c.04.754-.027 1.593-.207 2.218-.039.079-.082.122-.082.204h-.527zm7.73-4.07H20.95v-2.438h2.035zM17.574.855c.04 0 .04-.042.078-.042.043 0 .082.042.082.042l3.54 8.704c.081.12.042.285-.04.406a.422.422 0 0 1-.367.203h-6.234a.492.492 0 0 0-.192-.04.493.493 0 0 1-.367-.202.382.382 0 0 1-.066-.223.592.592 0 0 1 .027-.144zM13.301 9.23v.004a1.227 1.227 0 0 0-.008.934h-.887V7.73h1.504zm-1.707.938H6.71V7.73h4.883zM8.746 6.914H3.863V4.473h4.883zm-7.73-2.441H3.05v2.441H1.016zm0 16.273h4.882v2.442H1.016zm5.695 0h4.883v2.442H6.71zm5.695 0h3.254v1.219c0 .031 0 .058.004.09.016.425.16.816.395 1.133h-3.653zm10.578 2.442h-3.636c.261-.34.43-.762.46-1.223v-1.219h3.176zm0 0"/>
</svg>
